X:1
T:Title
%%score ( 1 2 ) { 3 | 4 }
L:1/8
Q:1/4=110
M:3/4
K:G
V:1 treble nm="Grand Piano, Soprano"
V:2 treble 
V:3 treble nm="Choir Pad, The Door of Your Heart"
V:4 bass 
V:1
 D>G [GB]4 | [Gc][GB] [GB]2 [FA]2 | G2 E4 | [DF]2 [DG]4 | [GB]2 [GB]2 [FA]2- | [FA]G [EG]2 F2 | %6
w: By~J.~F.~K.~Macpherson * *||||||
 G2 [FA]4 | D>G [GB]4 | [Gc][GB] [Bd]2 [GB]2 | G2 E2 [EG]2- | [EG][EA] [FB]4 | [Gc]2 [GB]2 [DG]2- | %12
w: ||||||
 [DG][DB] [EA]2 E2 | [DF]2 [DG]4 | [GB]2 [GB]2 [FA]2 | [GB]2 [Bd]4 | [GB]G [EG]4 | [Ec]2 [GB]4 | %18
w: ||||||
 [GB]2 [GB]3 [FA] | G2 [FA]2 [Fc]2- | [Fc][GB] [FA]4 | [GB][GB] [GB]2 [Ac]2 | [GB]2 [FA]4 | %23
w: |||||
 [GB]>[Ac] [Bd]2 [df]2- | [df][ce] [Bd]4 | [Ac]2 [GB]2 [Gd]2- | [Gd]E D2- [DB]2 | [FA]2 G4- | %28
w: |||||
 G4 z2 |] %29
w: |
V:2
 x6 | x6 | x6 | x6 | x6 | x6 | x6 | x6 | x6 | x6 | x6 | x6 | x6 | x6 | x6 | x6 | x6 | x6 | x6 | %19
 x6 | x6 | x6 | x6 | x6 | x6 | x6 | z2 F2 z2 | x6 | x6 |] %29
V:3
 B,>D D4 | ED D2 C2 | B,2 C4 | C2 B,4 | D2 D2 C2- | CB, ^C2 C2 | ^C2 D4 | B,>D D4 | ED D2 C2 | %9
 B,2 C2 C2- | CE ^D4 | E2 D2[K:bass] B,2- | B,B, C2 E2 | DC B,4 | B,2 B,2 C2 | B,2 B,4 | CB, C4 | %17
 C2 D4 | D2 C3 C | B,2 A,2 A,2- | A,B, D4 | B,B, B,2 A,2 | B,2 D4 | G,>F, G,2 A,2- | A,C B,4 | %25
 A,2 B,2 B,2- | B,[K:treble]E D2 B,2 | C2 B,4- | B,4 z2 |] %29
V:4
 G,>G, G,4 | G,G, G,,2 A,,2 | B,,2 C,4 | D,2 G,,4 | G,2 G,2 D,2- | D,E, A,,2 A,,2 | A,,2 D,4 | %7
 G,>G, G,4 | G,G, D,2 E,2 | D,2 C,2 E,2- | E,C, B,,4 | C,2 G,2 G,2- | G,E, C,2 A,,2 | D,2 G,,4 | %14
 G,2 G,2 G,2 | G,2 G,4 | G,G, C,4 | C,2 G,4 | G,2 E,3 E, | E,2 F,2 F,2- | F,G, D,4 | G,G, G,2 F,2 | %22
 G,2 D,4 | G,,>A,, B,,2 C,2- | C,E, G,4 | C,2 D,2 E,2- | E,E, D,4 | D,2 G,,4- | G,,4 z2 |] %29

